!!!COM: Music21
!!!OTL: O pandeiro repinica
!!!OMV: pezas_jotas_o-pandeiro-repinica_o-pandeiro-repinica-partitura.musicxml
**kern
*part1
*staff1
*I"Bagpipes
*I'Bag
*clefG^2
*k[]
*M3/4
=1
!LO:TX:a:t=Prestissimo
*MM200
!LO:TX:a:t=[quarter]=200
2r
4gg
=||
8bbL
8cccJ
8bbL
8aaJ
8ggL
8ffJ
=
4ee
8eeL
8ffJ
8ggL
8aaJ
=
8bbL
8cccJ
8bbL
8aaJ
8ggL
8aaJ
=
4ff
8ddL
8eeJ
8ffL
8ggJ
=
8aaL
8bbJ
8aaL
8ggJ
8ffL
8eeJ
=
4dd
8ddL
8eeJ
8ffL
8ggJ
!!linebreak:original
=
8aaL
8bbJ
8aaL
8ggJ
8ffL
8aaJ
!!linebreak:original
=
4gg
8eeL
8ffJ
8ggL
8aaJ
=||
8bbL
8cccJ
8bbL
8aaJ
8ggL
8ffJ
=
4ee
8eeL
8ffJ
8ggL
8aaJ
=
8bbL
8cccJ
8bbL
8aaJ
8ggL
8aaJ
=
4ff
8ddL
8eeJ
8ffL
8ggJ
=
8aaL
8bbJ
8aaL
8ggJ
8ffL
8eeJ
=
4dd
8ddL
8eeJ
8ffL
8ggJ
!!linebreak:original
=
8aaL
8ggJ
8ffL
8eeJ
8ddL
8ffJ
=
4ee
8eeL
8ffJ
4gg
=||
4ee
4gg
8eeL
8ggJ
=
4gg
8eeL
8ggJ
4aa
=
4ff
4aa
8ffL
8aaJ
=
4aa
8ffL
8aaJ
4aa
=
4ff
4aa
8ggL
8aaJ
=
8bbL
8aaJ
8ggL
8ffJ
4gg
!!linebreak:original
=
4ee
4gg
8eeL
8ggJ
=
4gg
8eeL
8ggJ
4gg
=||
4ee
4gg
8eeL
8ggJ
=
4gg
8eeL
8ggJ
4aa
=
4ff
4aa
8ffL
8aaJ
=
4aa
8ffL
8aaJ
4aa
=
4ff
4aa
8ggL
8aaJ
=
8bbL
8aaJ
8ggL
8ffJ
4ee
=
[2.ee
=
4ee]
8ggL
8ggJ
4gg
!!linebreak:original
=||
4gg
4.gg
8aa
=
8bbL
8cccJ
8bbL
8aaJ
4gg
=
[2.gg
=
4gg]
8eeL
8ffJ
4gg
=
4ccc
4ccc
4ccc
=
4bb
8aaL
8ggJ
4ff
!!pagebreak:original
=
[2.ff
=
4ff]
8ggL
8ggJ
4gg
=||
4gg
4.gg
8aa
=
8bbL
8cccJ
8bbL
8aaJ
4gg
=
[2.gg
=
4gg]
8eeL
8ffJ
4gg
=
4ccc
4ccc
4ccc
=
4bb
4aa
[4gg
=
4gg]
4aa
4ccc
=||
4bb
4gg
[4ff
=
4ff]
4gg
4bb
!!linebreak:original
=
4aa
8ggL
8ffJ
4ee
=
[2.ee
=
4ee]
8eeL
8ffJ
4gg
=
4ccc
4ccc
4ccc
=
4bb
4aa
[4gg
=
4gg]
4aa
4ccc
=||
4bb
4gg
[4ff
=
4ff]
4gg
4bb
=
4aa
8ggL
8ffJ
4ee
!!linebreak:original
=
[2.ee
=
2ee]
4gg
==
*-
!!!system-decoration: s1,s2
